X: 1859
T: Ta Dil
C: Çalakzade Mustafa Efendi
O: Turkey
F: http://compmusic.upf.edu/node/140
N: acemasiran--ilahi--muhammes--ta_dil--calakzade_mustafa_efendi
N: makam= acemasiran
N: form= ilahi
N: usul= muhammes = 32/4
M: 32/4
L: 1/16
K: C _B   
Q: 1/4=72
%%MIDI tuningsystem comma53
e4 f4 f2 a2 g2 f2  | f2 e4 e d e3 d c4  | \
w:   |   | 
e3 d c2 d2 d2 _7/8e2 d2 c2  | 
w:   | 
d _7/8e ^f4 e d d c c _1/4B c4  | \
w:   | 
G2 A2 _1/4B2 c2 d2 e2 f2 g2  | a2 g2 f2 e f d4 a2 b2  | 
w:   |   | 
a g g3 f e2 f2 e2 f2 g2  | a2 g f f6 c2 d2 e2  | \
w:   |   | 
f4 e4 f4 f2 a2  | 
w:   | 
g2 f2 f2 e4 d2 c3 d  | c4 c2 d2 c2 B2 B2 c2  | \
w:   |   | 
B2 A2 A2 B2 A2 d2 c B A G  | 
w:   | 
F4 F4 G2 A2 B2 d2  | c2 B2 A2 G2 F2 E F D4  | \
w:   |   | 
A2 B2 A G G3 F E2 F2 E2  | 
w:   | 
F2 G3/2 A/ G F F6 c2 d2  | e2 f4 e4 f4 f2  | \
w:   |   | 
a2 g2 f2 f2 e4 e d e3 d c4 e3 d c2 d2 d2  | 
w:   | 
_7/8e2 d2 c2 d e ^f4 e d d c  | c _1/4B c4 G2 A2 B2 c2 d2  | \
w:   |   | 
e2 f2 g2 a2 g2 f2 e f d4 a2 b2 a g g3 f e2 f2  | 
w:   | 
e2 f2 g2 a2 g f f6  | c2 d2 e2 f4 e4 f4 f2 a2 g2 f2 f2 e4  | \
w:   |   | 
d2 c3 d c4 c2 d2 c2  | 
w:   | 
B2 B2 c2 B2 A2 A2 B2 A2  | d2 c B A G F4 F4 G2  | \
w:   |   | 
A2 B2 d2 c2 B2 A2 G2 F2  | 
w:   | 
E F D4 A2 B2 A G G3 F  | E2 F2 E2 F2 G3/2 A/ G F F6 g2 a2 g2 a4 g4  | 
w:   |   | 
a4 a2 d'2 c'2 b2 b2 a4 g2 a3 g f4 a3 g  | \
w:   | 
f2 g2 g2 _7/8a2 g2 f2 g a _1/4b4 a g g f f e f4 c2 d2  | 
w:   | 
e2 f2 g2 a2 b2 c'2 a2 g2  | f2 e f d4 a2 b2 a g g3 f e2 f2 e2 f2 g2 a2 g f  | 
w:   |   | 
f6 c2 d2 e2 f4  | e4 f4 f2 a2 g2 f2  | \
w:   |   | 
f2 e4 d2 c3 d c4  | c2 d2 c2 B2 B2 c2 B2 A2  | 
w:   |   | 
A2 B2 A2 d2 c B A G F4  | F4 G2 A2 B2 d2 c2 B2  | \
w:   |   | 
A2 G2 F2 E F D4 A2 B2  | 
w:   | 
A G G3 F E2 F2 E2 F2 G3/2 A/  | G F F8 F4 z4 |
w:   |   | 


